X: 44
T:Millicent's Favourite
% Nottingham Music Database
S:Kevin Briggs
P:ABC
M:4/4
L:1/8
R:Hornpipe
K:D
P:A
|:ag|"D"fadf AdFA|"D"DFAd f2ef|"Em"gbeg ceAF|"A7"GABG E2ag|
"D"fadf AdFA|"D"DFAd f2ef|"Em"gbge "A7"cABc|"D"d2f2 d2:|
P:B
|:D2|"A7"GFGA Bcde|"D"f3e d"G"cdB|"D"A2f2 fAfA|"A7"G2e2 eGeF|
"A7"GFGA Bcde|"D"f3e d"G"cdB|"Em"Afed "A7"cABc|"D"d2f2 d2:|
P:C
|:ag|"D"(3fgf(3efe (3ded(3cdc|"G"(3BcB(3ABA G2ba|
"Em"(3gag(3fgf (3efe(3ded|"A7"(3cdc(3BcB A2ag|"D"(3fgf(3efe (3ded(3cdc|
"G"(3BcB(3ABA (3GAA(3FGF|"A7"EAed cABc|"D"d2f2 d2:|


